X: 33843
T: Reconciliation, The
R: reel
M: 4/4
K: Amajor
A2 c/B/A eAfA|eAfA ecBc|A2 c/B/A eAfA|ecBc AFEF|
A2 c/B/A eAfA|eAfA ecBc|ABAF EFAf|1 ecBc A3 A:|2 ecBc A2 cB|
ABce a3 f|efed cdcB|A2 ce a3 e|fbba edcB|
~a3 e faec|dBcA BAFB|ABAF EFAf|1 ecBc ABcB:|2 ecBc A3 A||

